X:137
T:I Bind Unto Myself Today
%%stretchlast false
M:3/4
L:1/4
K:Ab clef=C1
"^iii"[Cc] "^vi"[F,Fcf] "^vi¹"[A,Fcf] | "^vi"[F,Fcf] "^iii"[C,Ece] [C,Ec] | [CEce] "^v¹"[A,Eea] "^I"[A,Eec'] | "^ii¹"[Dfb]/ "^IV"[Dfa]/ "^v"[Eea] "^V"[Eeg] | [Eeg] [E,Geb] [E,Geg] | [E,Ge] [EGe] [EGeg] | "^ii7³"[A,Fdb] "^♯iii"[DEea]2 | [DAda]/ [DAca]/ "^♯iii°"[DEeg] [D,Eeg] | "^vi7"[F,Aec'] "^♯vii"[A,Af]3/2 [A,Afg]/ | "^IVmaj7³"[CFda]/ "^vi"[CFdf]/ "^iii"[CEce] [CEc] | "^I¹"[CEA] "^IVmaj7"[DFca] "^vi²"[CFca] | "^vi"[EFe]/ "^v"[Ee]/ "^IV"[DEAf] "^V"[Eeg] | "^vi7³"[E,Fca]/ "^V"[E,Geb]/ "^I¹"[C,Aec'] "^♯iii"[D,Aec'] | "^iii7"[C,Geb]/ "^iii"[C,Gec']/ "^v"[F,Aea] "^IV¹"[F,Adf] | "^iii7³"[B,ceg] "^vi"[FAcf]2 | "^ii²"[FBdf] "^vi"[FAcf]2 | [FAcf]2 |]
